X: 1
T: the Tipsy Parson
C: Ralph Page
R: reel
Z: 2012 John Chambers <jc:trillian.mit.edu>
B: Northern Junket, v.4, #2, August 1953
N: __
M: C|
L: 1/8
K: G
|:\
G2Be d2Bd | gdBd cAFA | G2Be d2Bd | dcAB GDEF |
G2Be d2Bd | gdBd cAFA | GBAc ((3Bcd) eg | fdcA G2z2 :|
|:\
A2FA c2BA | GdBG d2cB | A2FA c2BA | G2B2 d2Bc |
d2Bd g2dB | Acee e2dc | BgdB cAFA | G2Bd g2z2 :|

%%sep 1 1 500

